_includes/icons/ios-butterfly.svg

<svg fill="#666" height="50" viewBox="0 0 50 50" width="50" xmlns="http://www.w3.org/2000/svg"><path d="m5 3c-1.28125 0-2.53125.230469-3.5 1.03125s-1.5 2.136719-1.5 3.78125c0 8.890625.453125 14.261719 2.875 17.65625 1.210938 1.699219 2.914063 2.785156 5.09375 3.40625.457031.128906 1.03125.1875 1.53125.28125-1.296875.667969-2.351562 1.496094-3.0625 2.4375-1.621094 2.148438-1.851562 4.558594-1.15625 6.1875.003906.007813-.003906.023438 0 .03125.957031 2.378906 2.457031 4.59375 4.1875 6.28125 1.734375 1.695313 3.691406 2.90625 5.71875 2.90625.785156 0 1.359375-.292969 2.21875-.78125s1.851563-1.226562 2.90625-2.1875c1.699219-1.550781 3.394531-3.929687 4.6875-6.8125 1.292969 2.882813 2.988281 5.261719 4.6875 6.8125 1.054688.960938 2.046875 1.699219 2.90625 2.1875s1.433594.78125 2.21875.78125c2.027344 0 3.984375-1.210937 5.71875-2.90625 1.734375-1.695312 3.230469-3.921875 4.1875-6.3125 0-.011719 0-.019531 0-.03125.628906-1.605469.398438-3.996094-1.21875-6.15625-.707031-.941406-1.738281-1.765625-3.03125-2.4375.511719-.097656 1.097656-.148437 1.5625-.28125 2.179688-.621094 3.882813-1.707031 5.09375-3.40625 2.421875-3.394531 2.875-8.765625 2.875-17.65625 0-1.6875-.519531-3.023437-1.5-3.8125-.980469-.789062-2.234375-1-3.5-1-1.53125 0-3.246094.707031-5.15625 1.84375s-3.960937 2.726563-6 4.625c-3.511719 3.269531-6.832031 7.464844-8.84375 11.8125-2.011719-4.347656-5.332031-8.542969-8.84375-11.8125-2.039062-1.898437-4.089844-3.488281-6-4.625s-3.625-1.84375-5.15625-1.84375zm0 2c.820313 0 2.375.519531 4.125 1.5625s3.738281 2.558594 5.6875 4.375c3.898438 3.628906 7.636719 8.484375 9.25 13.09375.144531.390625.519531.652344.9375.652344s.792969-.261719.9375-.652344c1.613281-4.609375 5.351563-9.464844 9.25-13.09375 1.949219-1.816406 3.9375-3.332031 5.6875-4.375s3.304688-1.5625 4.125-1.5625c1.035156 0 1.804688.203125 2.25.5625.445313.359375.75.9375.75 2.25 0 8.808594-.621094 13.871094-2.5 16.5-.9375 1.316406-2.160156 2.125-4.03125 2.65625s-4.355469.71875-7.5625.71875c-.546875.007813-.984375.453125-.984375 1s.4375.992188.984375 1c4.472656 0 6.792969 1.480469 8 3.09375s1.238281 3.558594.96875 4.25c-.84375 2.109375-2.234375 4.175781-3.75 5.65625-1.503906 1.46875-3.109375 2.296875-4.28125 2.3125-.015625-.03125-.625-.175781-1.25-.53125-.714844-.40625-1.617187-1.042969-2.5625-1.90625-1.890625-1.726562-3.921875-4.363281-5.0625-7.96875-.113281-.441406-.511719-.75-.96875-.75s-.855469.308594-.96875.75c-1.140625 3.605469-3.171875 6.242188-5.0625 7.96875-.945312.863281-1.847656 1.5-2.5625 1.90625-.582031.328125-1.128906.488281-1.21875.53125-1.171875 0-2.796875-.832031-4.3125-2.3125s-2.90625-3.546875-3.75-5.65625c0-.011719 0-.019531 0-.03125-.292969-.671875-.28125-2.605469.9375-4.21875s3.558594-3.09375 8.03125-3.09375c.546875-.007812.984375-.453125.984375-1s-.4375-.992187-.984375-1c-3.207031 0-5.691406-.1875-7.5625-.71875s-3.09375-1.339844-4.03125-2.65625c-1.878906-2.628906-2.5-7.691406-2.5-16.5 0-1.253906.328125-1.84375.78125-2.21875s1.199219-.59375 2.21875-.59375z"/></svg>

<svg xmlns="http://www.w3.org/2000/svg" viewBox="0 0 50 50" width="50" height="50" fill="#666"><path d="M 5 3 C 3.71875 3 2.46875 3.230469 1.5 4.03125 C 0.53125 4.832031 0 6.167969 0 7.8125 C 0 16.703125 0.453125 22.074219 2.875 25.46875 C 4.085938 27.167969 5.789063 28.253906 7.96875 28.875 C 8.425781 29.003906 9 29.0625 9.5 29.15625 C 8.203125 29.824219 7.148438 30.652344 6.4375 31.59375 C 4.816406 33.742188 4.585938 36.152344 5.28125 37.78125 C 5.285156 37.789063 5.277344 37.804688 5.28125 37.8125 C 6.238281 40.191406 7.738281 42.40625 9.46875 44.09375 C 11.203125 45.789063 13.160156 47 15.1875 47 C 15.972656 47 16.546875 46.707031 17.40625 46.21875 C 18.265625 45.730469 19.257813 44.992188 20.3125 44.03125 C 22.011719 42.480469 23.707031 40.101563 25 37.21875 C 26.292969 40.101563 27.988281 42.480469 29.6875 44.03125 C 30.742188 44.992188 31.734375 45.730469 32.59375 46.21875 C 33.453125 46.707031 34.027344 47 34.8125 47 C 36.839844 47 38.796875 45.789063 40.53125 44.09375 C 42.265625 42.398438 43.761719 40.171875 44.71875 37.78125 C 44.71875 37.769531 44.71875 37.761719 44.71875 37.75 C 45.347656 36.144531 45.117188 33.753906 43.5 31.59375 C 42.792969 30.652344 41.761719 29.828125 40.46875 29.15625 C 40.980469 29.058594 41.566406 29.007813 42.03125 28.875 C 44.210938 28.253906 45.914063 27.167969 47.125 25.46875 C 49.546875 22.074219 50 16.703125 50 7.8125 C 50 6.125 49.480469 4.789063 48.5 4 C 47.519531 3.210938 46.265625 3 45 3 C 43.46875 3 41.753906 3.707031 39.84375 4.84375 C 37.933594 5.980469 35.882813 7.570313 33.84375 9.46875 C 30.332031 12.738281 27.011719 16.933594 25 21.28125 C 22.988281 16.933594 19.667969 12.738281 16.15625 9.46875 C 14.117188 7.570313 12.066406 5.980469 10.15625 4.84375 C 8.246094 3.707031 6.53125 3 5 3 Z M 5 5 C 5.820313 5 7.375 5.519531 9.125 6.5625 C 10.875 7.605469 12.863281 9.121094 14.8125 10.9375 C 18.710938 14.566406 22.449219 19.421875 24.0625 24.03125 C 24.207031 24.421875 24.582031 24.683594 25 24.683594 C 25.417969 24.683594 25.792969 24.421875 25.9375 24.03125 C 27.550781 19.421875 31.289063 14.566406 35.1875 10.9375 C 37.136719 9.121094 39.125 7.605469 40.875 6.5625 C 42.625 5.519531 44.179688 5 45 5 C 46.035156 5 46.804688 5.203125 47.25 5.5625 C 47.695313 5.921875 48 6.5 48 7.8125 C 48 16.621094 47.378906 21.683594 45.5 24.3125 C 44.5625 25.628906 43.339844 26.4375 41.46875 26.96875 C 39.597656 27.5 37.113281 27.6875 33.90625 27.6875 C 33.359375 27.695313 32.921875 28.140625 32.921875 28.6875 C 32.921875 29.234375 33.359375 29.679688 33.90625 29.6875 C 38.378906 29.6875 40.699219 31.167969 41.90625 32.78125 C 43.113281 34.394531 43.144531 36.339844 42.875 37.03125 C 42.03125 39.140625 40.640625 41.207031 39.125 42.6875 C 37.621094 44.15625 36.015625 44.984375 34.84375 45 C 34.828125 44.96875 34.21875 44.824219 33.59375 44.46875 C 32.878906 44.0625 31.976563 43.425781 31.03125 42.5625 C 29.140625 40.835938 27.109375 38.199219 25.96875 34.59375 C 25.855469 34.152344 25.457031 33.84375 25 33.84375 C 24.542969 33.84375 24.144531 34.152344 24.03125 34.59375 C 22.890625 38.199219 20.859375 40.835938 18.96875 42.5625 C 18.023438 43.425781 17.121094 44.0625 16.40625 44.46875 C 15.824219 44.796875 15.277344 44.957031 15.1875 45 C 14.015625 45 12.390625 44.167969 10.875 42.6875 C 9.359375 41.207031 7.96875 39.140625 7.125 37.03125 C 7.125 37.019531 7.125 37.011719 7.125 37 C 6.832031 36.328125 6.84375 34.394531 8.0625 32.78125 C 9.28125 31.167969 11.621094 29.6875 16.09375 29.6875 C 16.640625 29.679688 17.078125 29.234375 17.078125 28.6875 C 17.078125 28.140625 16.640625 27.695313 16.09375 27.6875 C 12.886719 27.6875 10.402344 27.5 8.53125 26.96875 C 6.660156 26.4375 5.4375 25.628906 4.5 24.3125 C 2.621094 21.683594 2 16.621094 2 7.8125 C 2 6.558594 2.328125 5.96875 2.78125 5.59375 C 3.234375 5.21875 3.980469 5 5 5 Z"/></svg>
